design-system/icons/close--labs-icons.svg

<svg width="21" height="20" viewBox="0 0 21 20" fill="none" xmlns="http://www.w3.org/2000/svg">
<g clip-path="url(#clip0_234_194)">
<mask id="mask0_234_194" style="mask-type:alpha" maskUnits="userSpaceOnUse" x="0" y="0" width="24" height="24">
<rect x="0.083252" width="23.0833" height="23.0833" fill="currentColor"/>
</mask>
<g mask="url(#mask0_234_194)">
<path d="M10.1042 11.0801L6.12508 15.0801C5.90286 15.3024 5.63897 15.41 5.33341 15.403C5.02786 15.3961 4.76397 15.2815 4.54175 15.0593C4.33341 14.8371 4.23272 14.5801 4.23966 14.2885C4.24661 13.9968 4.35425 13.7399 4.56258 13.5176L8.52091 9.53846L4.54175 5.51763C4.33341 5.29541 4.22925 5.03846 4.22925 4.7468C4.22925 4.45513 4.33341 4.19818 4.54175 3.97596C4.76397 3.75374 5.02786 3.63916 5.33341 3.63221C5.63897 3.62527 5.90286 3.73291 6.12508 3.95513L10.1042 7.95513L14.0417 3.95513C14.264 3.73291 14.5279 3.62527 14.8334 3.63221C15.139 3.63916 15.4029 3.75374 15.6251 3.97596C15.8334 4.19818 15.9341 4.45513 15.9272 4.7468C15.9202 5.03846 15.8126 5.29541 15.6042 5.51763L11.6459 9.53846L15.6042 13.5176C15.8126 13.726 15.9202 13.9794 15.9272 14.278C15.9341 14.5767 15.8334 14.8371 15.6251 15.0593C15.4029 15.2815 15.139 15.3961 14.8334 15.403C14.5279 15.41 14.264 15.3024 14.0417 15.0801L10.1042 11.0801Z" fill="currentColor"/>
</g>
</g>
<defs>
<clipPath id="clip0_234_194">
<rect width="20" height="20" fill="white" transform="translate(0.083252)"/>
</clipPath>
</defs>
</svg>

<svg xmlns="http://www.w3.org/2000/svg" width="21" height="20" fill="none" viewBox="0 0 21 20"><g clip-path="url(#a)"><mask id="b" width="24" height="24" x="0" y="0" maskUnits="userSpaceOnUse" style="mask-type:alpha"><path fill="currentColor" d="M.083 0h23.083v23.083H.083z"/></mask><g mask="url(#b)"><path fill="currentColor" d="m10.104 11.08-3.979 4q-.333.333-.792.323a1.12 1.12 0 0 1-.791-.344 1.05 1.05 0 0 1-.302-.77q.01-.439.323-.771l3.958-3.98-3.98-4.02a1.1 1.1 0 0 1-.312-.771q0-.438.313-.771a1.12 1.12 0 0 1 .791-.344q.459-.011.792.323l3.98 4 3.937-4q.333-.333.791-.323.459.01.792.344.313.334.302.77a1.14 1.14 0 0 1-.323.772l-3.958 4.02 3.958 3.98q.313.312.323.76.01.449-.302.781a1.12 1.12 0 0 1-.792.344q-.458.011-.791-.323z"/></g></g><defs><clipPath id="a"><path fill="#fff" d="M.083 0h20v20h-20z"/></clipPath></defs></svg>
